packages/assets/static/images/icons/settings.svg

<svg width="24" height="24" viewBox="0 0 24 24" xmlns="http://www.w3.org/2000/svg">
<path d="M12.5 7.12507C11.5358 7.12507 10.5933 7.41099 9.7916 7.94666C8.98991 8.48233 8.36507 9.2437 7.99609 10.1345C7.62711 11.0253 7.53057 12.0055 7.71867 12.9511C7.90678 13.8968 8.37107 14.7654 9.05286 15.4472C9.73464 16.129 10.6033 16.5933 11.5489 16.7814C12.4946 16.9695 13.4748 16.873 14.3656 16.504C15.2564 16.135 16.0177 15.5102 16.5534 14.7085C17.0891 13.9068 17.375 12.9643 17.375 12.0001C17.3735 10.7076 16.8594 9.46849 15.9455 8.55457C15.0316 7.64065 13.7925 7.12656 12.5 7.12507ZM12.5 14.6251C11.9808 14.6251 11.4733 14.4711 11.0416 14.1827C10.61 13.8942 10.2735 13.4843 10.0748 13.0046C9.87614 12.525 9.82415 11.9972 9.92544 11.488C10.0267 10.9788 10.2767 10.511 10.6438 10.1439C11.011 9.77681 11.4787 9.5268 11.9879 9.42551C12.4971 9.32423 13.0249 9.37621 13.5045 9.57489C13.9842 9.77357 14.3942 10.11 14.6826 10.5417C14.971 10.9734 15.125 11.4809 15.125 12.0001C15.125 12.6963 14.8484 13.3639 14.3562 13.8562C13.8639 14.3485 13.1962 14.6251 12.5 14.6251ZM21.125 12.0741V11.926L22.4375 10.2844C22.5477 10.1469 22.624 9.9854 22.6603 9.81295C22.6966 9.6405 22.6919 9.46193 22.6466 9.29164C22.4097 8.3983 22.0557 7.54022 21.5938 6.73976C21.5048 6.58712 21.3811 6.45758 21.2327 6.36165C21.0843 6.26571 20.9154 6.20608 20.7397 6.18757L18.6509 5.9532L18.5469 5.84914L18.3125 3.75945C18.2939 3.58389 18.2342 3.41519 18.1382 3.26698C18.0423 3.11878 17.9128 2.99523 17.7603 2.90632C16.9598 2.44291 16.1014 2.08763 15.2075 1.84976C15.0371 1.80508 14.8585 1.80106 14.6862 1.83802C14.5139 1.87499 14.3527 1.9519 14.2156 2.06257L12.5741 3.37507H12.4259L10.7844 2.06257C10.6468 1.9524 10.4853 1.87608 10.3129 1.83977C10.1404 1.80345 9.96186 1.80816 9.79156 1.85351C8.89799 2.09183 8.03991 2.44742 7.23969 2.91101C7.08764 2.99955 6.95848 3.12251 6.86257 3.27002C6.76667 3.41754 6.70671 3.58549 6.6875 3.76039L6.45313 5.84914L6.34906 5.9532L4.25938 6.18757C4.08382 6.20622 3.91512 6.26592 3.76691 6.36185C3.6187 6.45778 3.49515 6.58724 3.40625 6.73976C2.94414 7.54048 2.59012 8.39888 2.35344 9.29257C2.30824 9.46273 2.30362 9.64112 2.33993 9.81339C2.37624 9.98566 2.45247 10.147 2.5625 10.2844L3.875 11.926V12.0741L2.5625 13.7157C2.45233 13.8532 2.37601 14.0148 2.33969 14.1872C2.30338 14.3596 2.30809 14.5382 2.35344 14.7085C2.59206 15.6021 2.94796 16.4602 3.41188 17.2604C3.50032 17.4123 3.62314 17.5414 3.77048 17.6373C3.91782 17.7332 4.08558 17.7932 4.26031 17.8126L6.34906 18.0451L6.45313 18.1491L6.6875 20.2407C6.70615 20.4163 6.76585 20.585 6.86178 20.7332C6.9577 20.8814 7.08716 21.0049 7.23969 21.0938C8.04021 21.5572 8.89862 21.9125 9.7925 22.1504C9.96295 22.1951 10.1415 22.1991 10.3138 22.1621C10.4861 22.1252 10.6473 22.0482 10.7844 21.9376L12.4259 20.6251H12.5741L14.2156 21.9376C14.3532 22.0477 14.5147 22.1241 14.6871 22.1604C14.8596 22.1967 15.0381 22.192 15.2084 22.1466C16.1018 21.9098 16.9598 21.5558 17.7603 21.0938C17.9127 21.0055 18.0422 20.8826 18.1385 20.7351C18.2347 20.5876 18.295 20.4195 18.3144 20.2444L18.5469 18.1557L18.6509 18.0516L20.7406 17.8126C20.9157 17.7932 21.0838 17.7329 21.2313 17.6367C21.3788 17.5404 21.5017 17.4109 21.59 17.2585C22.0534 16.458 22.4087 15.5996 22.6466 14.7057C22.6914 14.5358 22.6959 14.3578 22.6596 14.1859C22.6233 14.014 22.5472 13.8529 22.4375 13.7157L21.125 12.0741ZM18.8638 11.6157C18.8788 11.8717 18.8788 12.1284 18.8638 12.3844C18.847 12.6628 18.9342 12.9374 19.1084 13.1551L20.3122 14.6598C20.1986 14.9961 20.063 15.3246 19.9062 15.6432L17.9909 15.856C17.7136 15.8877 17.458 16.0214 17.2738 16.231C17.1034 16.4229 16.9219 16.6045 16.73 16.7748C16.5204 16.959 16.3867 17.2146 16.355 17.4919L16.1431 19.4063C15.8246 19.5637 15.4961 19.6999 15.1597 19.8141L13.655 18.6094C13.4553 18.4501 13.2073 18.3635 12.9519 18.3638C12.9294 18.3638 12.9069 18.3638 12.8844 18.3638C12.6283 18.3788 12.3717 18.3788 12.1156 18.3638C11.8375 18.3473 11.5631 18.4341 11.345 18.6076L9.84031 19.8123C9.50397 19.6986 9.17545 19.563 8.85688 19.4063L8.64406 17.491C8.61236 17.2137 8.4787 16.9581 8.26906 16.7738C8.07719 16.6035 7.89562 16.4219 7.72531 16.2301C7.54105 16.0204 7.28543 15.8868 7.00813 15.8551L5.09375 15.6432C4.93641 15.3247 4.80018 14.9962 4.68594 14.6598L5.88969 13.1551C6.06393 12.9374 6.15113 12.6628 6.13438 12.3844C6.11937 12.1284 6.11937 11.8717 6.13438 11.6157C6.15113 11.3374 6.06393 11.0627 5.88969 10.8451L4.68781 9.34039C4.80145 9.00404 4.93705 8.67552 5.09375 8.35695L7.00906 8.14414C7.28637 8.11243 7.54198 7.97877 7.72625 7.76914C7.89656 7.57726 8.07813 7.39569 8.27 7.22539C8.47964 7.04112 8.6133 6.7855 8.645 6.5082L8.85688 4.59382C9.1754 4.43648 9.50392 4.30025 9.84031 4.18601L11.345 5.3907C11.5631 5.56413 11.8375 5.65093 12.1156 5.63445C12.3717 5.61945 12.6283 5.61945 12.8844 5.63445C13.1626 5.65147 13.4372 5.5646 13.655 5.3907L15.1597 4.18601C15.4961 4.30025 15.8246 4.43648 16.1431 4.59382L16.3559 6.50914C16.3876 6.78644 16.5213 7.04206 16.7309 7.22632C16.9228 7.39663 17.1044 7.5782 17.2747 7.77007C17.459 7.97971 17.7146 8.11337 17.9919 8.14507L19.9062 8.35695C20.0636 8.67547 20.1998 9.00399 20.3141 9.34039L19.1103 10.8451C18.9354 11.0625 18.8475 11.3371 18.8638 11.6157Z"/>
</svg>

<svg viewBox="0 0 24 24" xmlns="http://www.w3.org/2000/svg" aria-hidden="true" fill="currentColor" height="24px" width="24px"><path d="M12.5 7.125a4.875 4.875 0 1 0 0 9.75 4.875 4.875 0 0 0 0-9.75m0 7.5a2.625 2.625 0 1 1 0-5.25 2.625 2.625 0 0 1 0 5.25m8.625-2.55v-.149l1.313-1.642a1.12 1.12 0 0 0 .209-.992 10.5 10.5 0 0 0-1.053-2.552 1.13 1.13 0 0 0-.854-.552l-2.09-.235-.103-.104-.235-2.09a1.12 1.12 0 0 0-.552-.853 10.5 10.5 0 0 0-2.553-1.056 1.13 1.13 0 0 0-.991.213l-1.642 1.312h-.148l-1.642-1.312a1.13 1.13 0 0 0-.992-.21c-.894.239-1.752.594-2.552 1.058a1.13 1.13 0 0 0-.553.85l-.234 2.088-.104.104-2.09.235a1.13 1.13 0 0 0-.853.552c-.462.8-.816 1.659-1.053 2.553a1.13 1.13 0 0 0 .21.991l1.312 1.642v.148l-1.312 1.642a1.13 1.13 0 0 0-.21.993c.24.893.595 1.751 1.059 2.551a1.13 1.13 0 0 0 .848.553l2.09.232.103.104.234 2.092a1.13 1.13 0 0 0 .553.853c.8.463 1.659.819 2.553 1.056a1.12 1.12 0 0 0 .991-.212l1.642-1.313h.148l1.642 1.313a1.13 1.13 0 0 0 .992.209 10.5 10.5 0 0 0 2.552-1.053 1.13 1.13 0 0 0 .554-.85l.233-2.088.104-.104 2.09-.24a1.13 1.13 0 0 0 .849-.553c.463-.801.819-1.66 1.057-2.553a1.13 1.13 0 0 0-.21-.99zm-2.261-.46q.023.385 0 .77c-.017.278.07.552.244.77l1.204 1.505a8 8 0 0 1-.406.983l-1.915.213a1.13 1.13 0 0 0-.717.375q-.256.288-.544.544c-.21.184-.343.44-.375.717l-.212 1.914a8 8 0 0 1-.983.408l-1.505-1.205a1.12 1.12 0 0 0-.703-.245h-.068a7 7 0 0 1-.768 0 1.13 1.13 0 0 0-.771.244L9.84 19.812a8 8 0 0 1-.983-.406l-.213-1.915a1.13 1.13 0 0 0-.375-.717 7 7 0 0 1-.544-.544 1.13 1.13 0 0 0-.717-.375l-1.914-.212a8 8 0 0 1-.408-.983l1.204-1.505c.174-.218.261-.492.244-.77a7 7 0 0 1 0-.77 1.13 1.13 0 0 0-.244-.77L4.688 9.34q.17-.504.406-.983l1.915-.213c.277-.032.533-.165.717-.375q.255-.288.544-.544c.21-.184.343-.44.375-.717l.212-1.914q.478-.237.983-.408l1.505 1.205c.218.173.492.26.77.243q.385-.022.77 0c.278.017.552-.07.77-.243l1.505-1.205q.505.171.983.408l.213 1.915c.032.277.165.533.375.717q.288.256.544.544c.184.21.44.343.717.375l1.914.212q.237.478.408.983l-1.204 1.505a1.13 1.13 0 0 0-.246.77"/></svg>
